X: 125
T: A Bruxa
R: waltz
M: 3/4
K: Fdorian
ge dc de|g2e2 cf|ed A2e2|d4d2|
ge dc de|g2e2 cf|ed A2d2|c4c2:|
cd e2f2|g6|ag f2b2|g6|
cd e2f2|g6|ag f2b2|g6|
|:ba gf ga|g2e2c2|gf ed ef|e2c2A2|
fe dc de|d2A2G2|AG A2=B2|1 c2e2g2:|2 c6||

